coreui/free/cil-toilet.svg

<svg viewBox="0 0 512 512" xmlns="http://www.w3.org/2000/svg"><path d="M469.613 46.229v-.001c-14.71-19.14-37.49-30.31-61.613-30.23h-12.39l-56 216H39.99v32c0 46.48 18.616 88.125 52.417 117.257 31.98 27.56 75.87 42.74 123.583 42.74h38.12l-8 72H447.98v-245.96l35.411-136.59h0c6.13-23.34 1.03-48.2-13.8-67.23ZM416 464H281.87l8-72h-73.88c-84.785 0-144-52.64-144-128h344Zm36.435-358.58l-32.82 126.57h-46.95l47.3-182.44v0c24.29 6.58 38.76 31.49 32.46 55.86Z"/></svg>

<svg xmlns="http://www.w3.org/2000/svg" viewBox="0 0 512 512">
  <path fill="var(--ci-primary-color, currentColor)" d="M469.613,46.229A77.38,77.38,0,0,0,408,16H395.619l-56,216H40v32c0,46.482,18.616,88.125,52.417,117.257C124.4,408.82,168.288,424,216,424h38.124l-8,72H448V250.04l35.411-136.585A77.379,77.379,0,0,0,469.613,46.229ZM416,464H281.876l8-72H216c-84.785,0-144-52.636-144-128H416Zm36.435-358.576L419.619,232H372.677l47.3-182.436a45.952,45.952,0,0,1,32.46,55.86Z" class="ci-primary"/>
</svg>
